X: 205
T: Song of the Grass Dance (e)
C: Teton Sioux band 1911-1914
N: Derived from sioux200.krn
O: South Dakota, U.S.A.
N: Teton Sioux Music by Frances Densmore, 1918
Z: transcribed to **kern format by Craig Sapp
L: 1/8
M: 2/4
Q: 1/4=58
K: Eb clef=bass
%%linebreak <none>
C C C C3// C// | 
E E C C3// C// | 
C C C C3// C// | 
C C G, G, | 
E, F,/ F,/ F, F, | 
F, F, E, E, ||  
[M:3/4]E,6 | 
E, E, C, C, E, E, ||  
[M:2/4]C,> C, C, C, | 
C,4 | 
C,4 :|]  



